src/assets/images/icons/mailIcon.svg

<svg width="18" height="14" viewBox="0 0 18 14" fill="none" xmlns="http://www.w3.org/2000/svg">
<path fill-rule="evenodd" clip-rule="evenodd" d="M3.44575 0.237213C1.91162 0.237213 0.667969 1.5164 0.667969 3.09436V10.7134C0.667969 12.2914 1.91162 13.5705 3.44575 13.5705H14.5569C16.091 13.5705 17.3346 12.2914 17.3346 10.7134V3.09436C17.3346 1.5164 16.091 0.237213 14.5569 0.237213H3.44575ZM5.35521 3.75316C4.99583 3.46565 4.47142 3.52392 4.18391 3.8833C3.8964 4.24269 3.95467 4.7671 4.31406 5.0546L8.48072 8.38794L9.0013 8.8044L9.52188 8.38794L13.6885 5.0546C14.0479 4.7671 14.1062 4.24269 13.8187 3.8833C13.5312 3.52392 13.0068 3.46565 12.6474 3.75316L9.0013 6.67003L5.35521 3.75316Z" fill="#5D6B8A"/>
</svg>

<svg xmlns="http://www.w3.org/2000/svg" width="18" height="14" fill="none"><path fill="#5D6B8A" fill-rule="evenodd" d="M3.446.237C1.912.237.668 1.517.668 3.094v7.62c0 1.577 1.244 2.856 2.778 2.856h11.11c1.535 0 2.779-1.279 2.779-2.857V3.094c0-1.578-1.244-2.857-2.778-2.857H3.446Zm1.91 3.516a.833.833 0 1 0-1.042 1.302l4.167 3.333.52.416.52-.416 4.167-3.333a.833.833 0 1 0-1.04-1.302L9 6.67 5.355 3.753Z" clip-rule="evenodd"/></svg>
